X:146
T: VICTORIA VICTORIA
N: K2244
O: Europa, Mitteleuropa, Deutschland, Darmstadt
R: Kinder - Lied, Reigen, Tanz, Nachahmungs - Spiel
M: 2/4
L: 1/16
K: C
A2 | G2G2E2A2 | G2G2E2
C2 | G2G2A2A2 | G2G2E2
C2 | G2G2A2A2 | G4E2
c2 | G4EEc2 | G4EEc2 | G4EE

@@@ Tune index: 7483
